;FLAVOR:Marlin
;TIME:3603
;Filament used: 2.54161m
;Layer height: 0.2
;MINX:92.513
;MINY:77.925
;MINZ:0.2
;MAXX:142.473
;MAXY:157.052
;MAXZ:10
;Generated with Cura_SteamEngine 4.11.0
M140 S80
M105
M190 S80
M104 S245
M105
M109 S245
M82 ;absolute extrusion mode
; Ender 3 Custom Start G-code
G92 E0 ; Reset Extruder
G28 ; Home all axes
G1 Z2.0 F3000 ; Move Z Axis up little to prevent scratching of Heat Bed
G1 X0.1 Y20 Z0.3 F5000.0 ; Move to start position
G1 X0.1 Y200.0 Z0.3 F1500.0 E15 ; Draw the first line
G1 X0.4 Y200.0 Z0.3 F5000.0 ; Move to side a little
G1 X0.4 Y20 Z0.3 F1500.0 E30 ; Draw the second line
G92 E0 ; Reset Extruder
G1 Z2.0 F3000 ; Move Z Axis up little to prevent scratching of Heat Bed
G1 X5 Y20 Z0.3 F5000.0 ; Move over to prevent blob squish
G92 E0
G92 E0
G1 F1200 E-3
;LAYER_COUNT:50
;LAYER:0
M107
G0 F6000 X95.13 Y81.836 Z0.2
;TYPE:SKIRT
G1 F1200 E0
G1 F900 X95.766 Y81.146 E0.03121
G1 X96.458 Y80.513 E0.0624
G1 X97.201 Y79.942 E0.09357
G1 X97.991 Y79.436 E0.12477
G1 X98.821 Y78.999 E0.15597
G1 X99.685 Y78.634 E0.18717
G1 X100.577 Y78.344 E0.21837
G1 X101.49 Y78.131 E0.24955
G1 X102.418 Y77.997 E0.28073
G1 X103.327 Y77.943 E0.31102
G1 X104.409 Y77.925 E0.34701
G1 X122.947 Y77.925 E0.96359
G1 X123.803 Y77.936 E0.99206
G1 X124.739 Y77.99 E1.02324
G1 X125.667 Y78.122 E1.05442
G1 X126.581 Y78.334 E1.08563
G1 X127.473 Y78.623 E1.11681
G1 X128.338 Y78.986 E1.14801
G1 X129.168 Y79.422 E1.1792
G1 X129.959 Y79.927 E1.21041
G1 X130.703 Y80.498 E1.2416
G1 X131.396 Y81.13 E1.2728
G1 X132.033 Y81.818 E1.30398
G1 X132.608 Y82.559 E1.33518
G1 X133.119 Y83.345 E1.36636
G1 X133.561 Y84.173 E1.39758
G1 X133.93 Y85.035 E1.42877
G1 X134.225 Y85.925 E1.45995
G1 X134.443 Y86.837 E1.49114
G1 X134.583 Y87.765 E1.52235
G1 X134.641 Y88.623 E1.55096
G1 X134.649 Y89.034 E1.56463
G1 X134.658 Y91.348 E1.64159
G1 X134.683 Y93.245 E1.70469
G1 X134.749 Y95.748 E1.78797
G1 X134.806 Y97.158 E1.83491
G1 X134.935 Y99.594 E1.91604
G1 X135.039 Y101.148 E1.96784
G1 X135.242 Y103.688 E2.05259
G1 X135.36 Y104.949 E2.09472
G1 X135.649 Y107.648 E2.185
G1 X135.805 Y108.94 E2.22828
G1 X136.143 Y111.461 E2.31288
G1 X136.344 Y112.835 E2.35907
G1 X136.74 Y115.291 E2.44181
G1 X136.982 Y116.678 E2.48864
G1 X137.429 Y119.055 E2.56908
G1 X137.719 Y120.492 E2.61784
G1 X138.244 Y122.928 E2.70073
G1 X138.549 Y124.264 E2.7463
G1 X139.125 Y126.636 E2.82749
G1 X139.458 Y127.933 E2.87203
G1 X140.107 Y130.326 E2.95449
G1 X140.461 Y131.57 E2.99751
G1 X141.179 Y133.973 E3.08093
G1 X141.804 Y135.972 E3.15059
G1 X142.02 Y136.696 E3.17572
G1 X142.249 Y137.606 E3.20693
G1 X142.401 Y138.531 E3.23811
G1 X142.473 Y139.466 E3.2693
G1 X142.465 Y140.404 E3.3005
G1 X142.377 Y141.338 E3.3317
G1 X142.21 Y142.261 E3.3629
G1 X141.964 Y143.166 E3.39409
G1 X141.643 Y144.047 E3.42528
G1 X141.248 Y144.898 E3.45648
G1 X140.782 Y145.711 E3.48765
G1 X140.248 Y146.482 E3.51884
G1 X139.65 Y147.205 E3.55005
G1 X138.993 Y147.875 E3.58126
G1 X138.282 Y148.485 E3.61242
G1 X137.52 Y149.033 E3.64363
G1 X136.715 Y149.515 E3.67484
G1 X135.872 Y149.926 E3.70603
G1 X135.047 Y150.246 E3.73547
G1 X134.144 Y150.554 E3.7672
G1 X116.256 Y156.366 E4.39277
G1 X115.585 Y156.573 E4.41613
G1 X114.677 Y156.811 E4.44735
G1 X113.753 Y156.971 E4.47854
G1 X112.819 Y157.052 E4.50972
G1 X111.881 Y157.052 E4.54092
G1 X110.947 Y156.973 E4.57209
G1 X110.022 Y156.815 E4.6033
G1 X109.115 Y156.578 E4.63448
G1 X108.231 Y156.265 E4.66568
G1 X107.376 Y155.877 E4.6969
G1 X106.558 Y155.419 E4.72808
G1 X105.782 Y154.892 E4.75928
G1 X105.054 Y154.301 E4.79047
G1 X104.379 Y153.65 E4.82166
G1 X103.761 Y152.945 E4.85284
G1 X103.206 Y152.189 E4.88404
G1 X102.717 Y151.388 E4.91525
G1 X102.299 Y150.549 E4.94643
G1 X102.008 Y149.832 E4.97216
G1 X101.859 Y149.404 E4.98724
G1 X101.636 Y148.718 E5.01123
G1 X100.616 Y145.454 E5.12497
G1 X100.178 Y143.981 E5.17608
G1 X99.251 Y140.712 E5.28909
G1 X98.857 Y139.253 E5.33936
G1 X98.02 Y135.987 E5.4515
G1 X97.662 Y134.501 E5.50234
G1 X96.875 Y131.051 E5.62003
G1 X96.582 Y129.679 E5.66669
G1 X95.881 Y126.191 E5.78502
G1 X95.622 Y124.802 E5.83202
G1 X95.028 Y121.386 E5.94734
G1 X94.789 Y119.884 E5.99793
G1 X94.277 Y116.38 E6.11571
G1 X94.08 Y114.894 E6.16556
G1 X93.664 Y111.417 E6.28203
G1 X93.511 Y109.977 E6.3302
G1 X93.185 Y106.478 E6.44708
G1 X93.06 Y104.906 E6.49953
G1 X92.819 Y101.257 E6.62116
G1 X92.75 Y99.951 E6.66466
G1 X92.603 Y96.237 E6.78828
G1 X92.565 Y94.78 E6.83676
G1 X92.515 Y90.85 E6.96748
G1 X92.513 Y89.661 E7.00703
G1 X92.515 Y89.422 E7.01498
G1 X92.529 Y88.721 E7.0383
G1 X92.588 Y87.785 E7.06949
G1 X92.726 Y86.858 E7.10066
G1 X92.943 Y85.945 E7.13188
G1 X93.236 Y85.054 E7.16307
G1 X93.605 Y84.192 E7.19426
G1 X94.046 Y83.364 E7.22546
G1 X94.555 Y82.577 E7.25663
G1 X95.13 Y81.836 E7.28783
G0 F6000 X95.523 Y81.991
G1 F900 X96.156 Y81.323 E7.31844
G1 X96.845 Y80.712 E7.34907
G1 X97.584 Y80.163 E7.37969
G1 X98.368 Y79.681 E7.4103
G1 X99.191 Y79.268 E7.44092
G1 X100.047 Y78.928 E7.47156
G1 X100.929 Y78.664 E7.50218
G1 X101.831 Y78.478 E7.53281
G1 X102.745 Y78.37 E7.56342
G1 X103.335 Y78.343 E7.58307
G1 X104.409 Y78.325 E7.61879
G1 X122.947 Y78.325 E8.23537
G1 X123.797 Y78.336 E8.26364
G1 X124.716 Y78.389 E8.29426
G1 X125.627 Y78.522 E8.32488
G1 X126.523 Y78.733 E8.3555
G1 X127.397 Y79.021 E8.3861
G1 X128.244 Y79.384 E8.41675
G1 X129.055 Y79.819 E8.44736
G1 X129.825 Y80.323 E8.47797
G1 X130.549 Y80.892 E8.5086
G1 X131.221 Y81.522 E8.53923
G1 X131.836 Y82.207 E8.56985
G1 X132.389 Y82.943 E8.60047
G1 X132.876 Y83.724 E8.63108
G1 X133.293 Y84.545 E8.66171
G1 X133.638 Y85.399 E8.69235
G1 X133.907 Y86.279 E8.72295
G1 X134.099 Y87.18 E8.75359
G1 X134.212 Y88.093 E8.78419
G1 X134.241 Y88.634 E8.80221
G1 X134.249 Y89.036 E8.81558
G1 X134.258 Y91.354 E8.89268
G1 X134.283 Y93.263 E8.95618
G1 X134.347 Y95.681 E9.03663
G1 X134.407 Y97.198 E9.08713
G1 X134.542 Y99.723 E9.17123
G1 X134.636 Y101.136 E9.21833
G1 X134.84 Y103.679 E9.30318
G1 X134.965 Y105.022 E9.34804
G1 X135.248 Y107.663 E9.43638
G1 X135.415 Y109.045 E9.48268
G1 X135.743 Y111.494 E9.56487
G1 X135.946 Y112.879 E9.61142
G1 X136.345 Y115.358 E9.69494
G1 X136.587 Y116.742 E9.74167
G1 X137.054 Y119.224 E9.82567
G1 X137.327 Y120.578 E9.87161
G1 X137.828 Y122.905 E9.95078
G1 X138.146 Y124.297 E9.99827
G1 X138.742 Y126.751 E10.08226
G1 X139.078 Y128.058 E10.12715
G1 X139.699 Y130.352 E10.20619
G1 X140.087 Y131.714 E10.25329
G1 X140.813 Y134.145 E10.33768
G1 X141.421 Y136.087 E10.40536
G1 X141.637 Y136.811 E10.43049
G1 X141.861 Y137.703 E10.46108
G1 X142.008 Y138.612 E10.4917
G1 X142.074 Y139.531 E10.52235
G1 X142.061 Y140.451 E10.55295
G1 X141.969 Y141.367 E10.58357
G1 X141.797 Y142.272 E10.61421
G1 X141.547 Y143.158 E10.64483
G1 X141.221 Y144.019 E10.67545
G1 X140.822 Y144.848 E10.70605
G1 X140.352 Y145.64 E10.73668
G1 X139.815 Y146.388 E10.76731
G1 X139.216 Y147.087 E10.79793
G1 X138.558 Y147.731 E10.82855
G1 X137.847 Y148.315 E10.85915
G1 X137.087 Y148.836 E10.8898
G1 X136.286 Y149.289 E10.9204
G1 X135.448 Y149.67 E10.95102
G1 X134.917 Y149.868 E10.96987
G1 X134.02 Y150.174 E11.00139
G1 X116.138 Y155.984 E11.62676
G1 X115.467 Y156.191 E11.65011
G1 X114.576 Y156.424 E11.68074
G1 X113.668 Y156.579 E11.71138
G1 X112.751 Y156.654 E11.74198
G1 X111.83 Y156.65 E11.77261
G1 X110.914 Y156.565 E11.80321
G1 X110.008 Y156.402 E11.83383
G1 X109.119 Y156.16 E11.86447
G1 X108.255 Y155.842 E11.89509
G1 X107.422 Y155.451 E11.9257
G1 X106.626 Y154.989 E11.95631
G1 X105.873 Y154.459 E11.98694
G1 X105.168 Y153.866 E12.01758
G1 X104.518 Y153.214 E12.0482
G1 X103.927 Y152.508 E12.07882
G1 X103.4 Y151.754 E12.10942
G1 X102.939 Y150.956 E12.14007
G1 X102.384 Y149.695 E12.1859
G1 X102.239 Y149.28 E12.20052
G1 X102.017 Y148.598 E12.22437
G1 X100.999 Y145.34 E12.3379
G1 X100.563 Y143.871 E12.38887
G1 X99.637 Y140.607 E12.50171
G1 X99.245 Y139.153 E12.5518
G1 X98.409 Y135.893 E12.66373
G1 X98.052 Y134.412 E12.7144
G1 X97.267 Y130.967 E12.83192
G1 X96.974 Y129.6 E12.87842
G1 X96.274 Y126.117 E12.99658
G1 X96.016 Y124.734 E13.04337
G1 X95.423 Y121.323 E13.15853
G1 X95.206 Y119.968 E13.20417
G1 X94.674 Y116.327 E13.32655
G1 X94.477 Y114.847 E13.37621
G1 X94.077 Y111.513 E13.4879
G1 X93.91 Y109.94 E13.54051
G1 X93.572 Y106.301 E13.66207
G1 X93.459 Y104.88 E13.70948
G1 X93.219 Y101.236 E13.83094
G1 X93.143 Y99.791 E13.87907
G1 X93.003 Y96.226 E13.99773
G1 X92.965 Y94.774 E14.04604
G1 X92.915 Y90.849 E14.1766
G1 X92.913 Y89.66 E14.21614
G1 X92.915 Y89.43 E14.22379
G1 X92.929 Y88.729 E14.24711
G1 X92.987 Y87.811 E14.27771
G1 X93.125 Y86.9 E14.30835
G1 X93.342 Y86.005 E14.33898
G1 X93.635 Y85.133 E14.36958
G1 X94.003 Y84.289 E14.4002
G1 X94.442 Y83.48 E14.43082
G1 X94.95 Y82.712 E14.46144
G1 X95.523 Y81.991 E14.49208
G0 F6000 X95.916 Y82.15
G1 F900 X96.547 Y81.504 E14.52211
G1 X97.232 Y80.915 E14.55216
G1 X97.966 Y80.39 E14.58217
G1 X98.745 Y79.932 E14.61223
G1 X99.56 Y79.544 E14.64225
G1 X100.407 Y79.23 E14.6723
G1 X101.278 Y78.992 E14.70233
G1 X102.167 Y78.832 E14.73237
G1 X103.342 Y78.743 E14.77156
G1 X104.409 Y78.725 E14.80706
G1 X122.947 Y78.725 E15.42363
G1 X123.791 Y78.736 E15.45171
G1 X124.693 Y78.789 E15.48176
G1 X125.586 Y78.921 E15.51178
G1 X126.464 Y79.132 E15.54182
G1 X127.32 Y79.42 E15.57186
G1 X128.147 Y79.782 E15.60188
G1 X128.939 Y80.217 E15.63194
G1 X129.69 Y80.719 E15.66198
G1 X130.393 Y81.286 E15.69202
G1 X131.043 Y81.913 E15.72206
G1 X131.635 Y82.595 E15.7521
G1 X132.165 Y83.326 E15.78213
G1 X132.627 Y84.102 E15.81216
G1 X133.02 Y84.915 E15.8422
G1 X133.338 Y85.76 E15.87223
G1 X133.581 Y86.63 E15.90227
G1 X133.746 Y87.518 E15.93231
G1 X133.841 Y88.646 E15.96996
G1 X133.849 Y89.037 E15.98297
G1 X133.858 Y91.362 E16.0603
G1 X133.883 Y93.279 E16.12406
G1 X133.947 Y95.697 E16.20452
G1 X134.005 Y97.159 E16.25318
G1 X134.144 Y99.774 E16.34028
G1 X134.239 Y101.193 E16.38758
G1 X134.435 Y103.64 E16.46923
G1 X134.572 Y105.109 E16.5183
G1 X134.848 Y107.685 E16.60447
G1 X135.012 Y109.046 E16.65006
G1 X135.344 Y111.527 E16.73332
G1 X135.551 Y112.934 E16.78062
G1 X135.959 Y115.472 E16.86612
G1 X136.195 Y116.82 E16.91163
G1 X136.661 Y119.299 E16.99553
G1 X136.936 Y120.662 E17.04178
G1 X137.449 Y123.044 E17.12282
G1 X137.756 Y124.385 E17.16857
G1 X138.362 Y126.883 E17.25407
G1 X138.671 Y128.086 E17.29538
G1 X139.332 Y130.524 E17.37939
G1 X139.712 Y131.86 E17.42559
G1 X140.39 Y134.13 E17.50439
G1 X140.997 Y136.068 E17.57193
G1 X141.253 Y136.925 E17.60168
G1 X141.473 Y137.801 E17.63172
G1 X141.614 Y138.693 E17.66176
G1 X141.676 Y139.594 E17.6918
G1 X141.658 Y140.497 E17.72184
G1 X141.56 Y141.395 E17.75188
G1 X141.383 Y142.28 E17.7819
G1 X141.128 Y143.147 E17.81196
G1 X140.798 Y143.987 E17.84198
G1 X140.395 Y144.795 E17.87201
G1 X139.922 Y145.565 E17.90206
G1 X139.382 Y146.289 E17.9321
G1 X138.781 Y146.963 E17.96214
G1 X138.123 Y147.581 E17.99216
G1 X137.412 Y148.138 E18.0222
G1 X136.655 Y148.63 E18.05223
G1 X135.857 Y149.054 E18.08229
G1 X134.787 Y149.49 E18.12072
G1 X133.896 Y149.794 E18.15203
G1 X116.02 Y155.602 E18.77718
G1 X115.349 Y155.809 E18.80054
G1 X114.475 Y156.037 E18.83058
G1 X113.584 Y156.186 E18.86063
G1 X112.684 Y156.256 E18.89065
G1 X111.781 Y156.247 E18.92069
G1 X110.882 Y156.157 E18.95074
G1 X109.995 Y155.988 E18.98077
G1 X109.126 Y155.742 E19.01081
G1 X108.283 Y155.419 E19.04083
G1 X107.471 Y155.024 E19.07087
G1 X106.697 Y154.558 E19.10092
G1 X105.968 Y154.025 E19.13095
G1 X105.288 Y153.43 E19.161
G1 X104.664 Y152.777 E19.19104
G1 X104.101 Y152.072 E19.22105
G1 X103.601 Y151.319 E19.25112
G1 X103.17 Y150.526 E19.28114
G1 X102.76 Y149.558 E19.3161
G1 X102.619 Y149.156 E19.33027
G1 X102.399 Y148.479 E19.35395
G1 X101.383 Y145.226 E19.46729
G1 X100.948 Y143.762 E19.51809
G1 X100.023 Y140.503 E19.63077
G1 X99.632 Y139.054 E19.68069
G1 X98.798 Y135.799 E19.79244
G1 X98.442 Y134.323 E19.84294
G1 X97.658 Y130.883 E19.96029
G1 X97.366 Y129.521 E20.00662
G1 X96.667 Y126.043 E20.12461
G1 X96.41 Y124.665 E20.17124
G1 X95.818 Y121.26 E20.28619
G1 X95.58 Y119.769 E20.33641
G1 X95.07 Y116.275 E20.45385
G1 X94.875 Y114.799 E20.50337
G1 X94.46 Y111.332 E20.6195
G1 X94.308 Y109.903 E20.6673
G1 X93.97 Y106.269 E20.78869
G1 X93.858 Y104.853 E20.83593
G1 X93.618 Y101.215 E20.9572
G1 X93.543 Y99.775 E21.00515
G1 X93.403 Y96.216 E21.12362
G1 X93.365 Y94.769 E21.17176
G1 X93.315 Y90.848 E21.30219
G1 X93.313 Y89.659 E21.34173
G1 X93.315 Y89.438 E21.34908
G1 X93.329 Y88.737 E21.3724
G1 X93.387 Y87.836 E21.40243
G1 X93.524 Y86.944 E21.43245
G1 X93.74 Y86.067 E21.46249
G1 X94.033 Y85.212 E21.49255
G1 X94.4 Y84.387 E21.52258
G1 X94.839 Y83.598 E21.55261
G1 X95.345 Y82.85 E21.58265
G1 X95.916 Y82.15 E21.6127
G1 F1200 E18.6127
;MESH:Tzompantli - Curved - Fits New Board.stl
G0 F6000 X112.363 Y98.223
G0 X110.515 Y96.881
G0 X111.11 Y99.763
G0 X111.424 Y100.375
G0 X113.448 Y102.423
;TYPE:WALL-INNER
G1 F1200 E21.6127
G1 F900 X114.494 Y102.258 E21.64792
G1 X115.449 Y101.773 E21.68354
G1 X116.207 Y101.015 E21.7192
G1 X116.691 Y100.063 E21.75472
G1 X116.858 Y99.006 E21.79031
G1 X116.691 Y97.95 E21.82587
G1 X116.207 Y96.995 E21.86148
G1 X115.441 Y96.234 E21.89739
G1 X114.491 Y95.75 E21.93285
G1 X113.431 Y95.587 E21.96852
G1 X112.382 Y95.753 E22.00385
G1 X111.429 Y96.237 E22.0394
G1 X110.671 Y96.995 E22.07505
G1 X110.183 Y97.953 E22.11081
G1 X110.02 Y99.014 E22.14651
G1 X110.186 Y100.063 E22.18184
G1 X110.674 Y101.018 E22.21751
G1 X111.434 Y101.776 E22.25321
G1 X112.386 Y102.261 E22.28874
G1 X113.448 Y102.423 E22.32447
G0 F6000 X113.447 Y102.018
G1 F900 X114.369 Y101.873 E22.35552
G1 X115.211 Y101.445 E22.38693
G1 X115.879 Y100.777 E22.41835
G1 X116.306 Y99.938 E22.44966
G1 X116.453 Y99.006 E22.48105
G1 X116.306 Y98.075 E22.51239
G1 X115.879 Y97.233 E22.5438
G1 X115.204 Y96.562 E22.57545
G1 X114.367 Y96.136 E22.60669
G1 X113.432 Y95.992 E22.63815
G1 X112.507 Y96.138 E22.6693
G1 X111.667 Y96.565 E22.70064
G1 X110.999 Y97.233 E22.73206
G1 X110.569 Y98.077 E22.76357
G1 X110.425 Y99.013 E22.79506
G1 X110.571 Y99.938 E22.82621
G1 X111.001 Y100.779 E22.85763
G1 X111.672 Y101.448 E22.88914
G1 X112.51 Y101.875 E22.92042
G1 X113.447 Y102.018 E22.95195
G0 F6000 X113.446 Y101.613
G1 F900 X114.244 Y101.488 E22.97881
G1 X114.973 Y101.117 E23.00602
G1 X115.551 Y100.539 E23.03321
G1 X115.921 Y99.813 E23.06031
G1 X116.048 Y99.006 E23.08748
G1 X115.921 Y98.2 E23.11462
G1 X115.551 Y97.471 E23.14181
G1 X114.967 Y96.89 E23.16921
G1 X114.243 Y96.522 E23.19622
G1 X113.433 Y96.397 E23.22348
G1 X112.632 Y96.523 E23.25045
G1 X111.905 Y96.893 E23.27758
G1 X111.327 Y97.471 E23.30477
G1 X110.955 Y98.201 E23.33202
G1 X110.83 Y99.012 E23.35931
G1 X110.956 Y99.813 E23.38628
G1 X111.328 Y100.54 E23.41344
G1 X111.91 Y101.12 E23.44077
G1 X112.634 Y101.489 E23.4678
G1 X113.446 Y101.613 E23.49512
G0 F6000 X113.445 Y101.208
;TYPE:WALL-OUTER
G1 F900 X114.119 Y101.103 E23.51781
G1 X114.735 Y100.789 E23.5408
G1 X115.223 Y100.301 E23.56376
G1 X115.536 Y99.688 E23.58665
G1 X115.643 Y99.006 E23.60961
G1 X115.536 Y98.325 E23.63254
G1 X115.223 Y97.709 E23.65552
G1 X114.73 Y97.218 E23.67866
G1 X114.119 Y96.908 E23.70145
G1 X113.433 Y96.802 E23.72454
G1 X112.757 Y96.908 E23.7473
G1 X112.143 Y97.221 E23.77022
G1 X111.655 Y97.709 E23.79317
G1 X111.341 Y98.325 E23.81617
G1 X111.235 Y99.012 E23.83929
G1 X111.341 Y99.688 E23.86205
G1 X111.655 Y100.301 E23.88495
G1 X112.148 Y100.792 E23.9081
G1 X112.758 Y101.103 E23.93087
G1 X113.445 Y101.208 E23.95399
G0 F6000 X113.445 Y101.648
G1 F1200 E20.95399
G0 F6000 X113.449 Y102.616
G0 X114.12 Y106.85
G0 X114.166 Y108.025
G0 X113.635 Y108.111
G0 X112.953 Y108.459
G0 X112.411 Y109.001
G0 X112.062 Y109.691
G0 X111.945 Y110.439
G0 X112.063 Y111.194
G0 X112.376 Y111.807
G0 X114.399 Y113.858
;TYPE:WALL-INNER
G1 F1200 E23.95399
G1 F900 X115.451 Y113.692 E23.98941
G1 X116.408 Y113.199 E24.02521
G1 X117.159 Y112.448 E24.06054
G1 X117.645 Y111.488 E24.09633
G1 X117.811 Y110.439 E24.13165
G1 X117.644 Y109.383 E24.16721
G1 X117.159 Y108.429 E24.2028
G1 X116.399 Y107.671 E24.23851
G1 X115.438 Y107.186 E24.27431
G1 X114.391 Y107.02 E24.30957
G1 X113.334 Y107.187 E24.34516
G1 X112.381 Y107.671 E24.38071
G1 X111.623 Y108.431 E24.41641
G1 X111.595 Y108.488 E24.41852
